X: 42
T:Miss Spence's Reel
M:4/4
L:1/8
Q:120
K:D
A|"D"d2AGF2DF|"A"E2C>E"?"=c3A|"G"B2AG"D"F2[A,D]-[A,D]-|[A,D] d- d2cd- d:
:!
"D"e|fafd fafd|"A"egec egec|"D"fafd fafd|"A"egec "D"d3:||
